swiss/communes/5144.svg

<svg xmlns="http://www.w3.org/2000/svg" xmlns:xlink="http://www.w3.org/1999/xlink" height="763" width="603" version="1.0"><defs><radialGradient xlink:href="#a" id="b" gradientUnits="userSpaceOnUse" gradientTransform="matrix(1.21503 0 0 1.26667 -839.192 -490.49)" cx="858.042" cy="579.933" fx="858.042" fy="579.933" r="300"/><linearGradient id="a"><stop style="stop-color:#fff;stop-opacity:.3137255" offset="0"/><stop offset=".19" style="stop-color:#fff;stop-opacity:.25098041"/><stop style="stop-color:#6b6b6b;stop-opacity:.1254902" offset=".6"/><stop style="stop-color:#000;stop-opacity:.1254902" offset="1"/></linearGradient></defs><g style="opacity:1"><path d="M1.5 1.5v458.868c0 166.311 134.314 301.132 300 301.132s300-134.821 300-301.132V1.5H1.5z" style="opacity:1;fill:#fcef3c"/></g><g style="opacity:1"><path style="stroke:#fcef3c;stroke-width:3;stroke-linecap:round;stroke-linejoin:round" d="M215.844 362.466c-5.548-31.21 5.548-45.776 5.548-45.776-30.517-23.928-31.905-60.687-31.905-60.687 14.565 2.081 43.349 8.929 54.792 30.17 2.628 4.877 4.824 8.555 7.336 11.287-10.352-65.491-82.242-46.833-124.897-46.833-92.592 0-107.157-76.986-107.157-76.986s42.655 45.255 105.596 45.255c43.695 0 49.937-13.004 94.673-13.004 44.735 0 81.668 17.295 81.668 94.672 0-77.377 36.933-94.672 81.668-94.672 44.735 0 50.978 13.004 94.672 13.004 62.942 0 105.597-45.255 105.597-45.255s-14.565 76.986-107.157 76.986c-42.653 0-114.545-18.658-124.896 46.833 2.512-2.731 4.708-6.409 7.335-11.287 11.444-21.241 40.229-28.09 54.794-30.17 0 0-1.389 36.759-31.905 60.687 0 0 11.097 14.565 5.548 45.776 0 0 18.381 14.565 18.381 58.26 0 58.261-30.171 79.067-30.171 122.242 0 28.09 11.444 36.934 5.722 63.981-5.722 27.05-34.852 59.821-60.86 70.225 0 0 4.682-6.502 6.242-10.403 0 0-28.437 20.112-61.381 15.605 0 0 16.299-15.084 16.299-28.609 0-23.235-15.258-37.106-27.049-54.793-11.791-17.685-11.444-36.065-11.444-56.872 0-20.808 5.781-49.557-13.871-74.212-19.073-23.93-35.372-71.092-13.178-105.424z"/><path style="fill:#fcef3c;stroke:#fcef3c;stroke-width:4;stroke-linecap:round;stroke-linejoin:round" d="M321.774 359.246c6.52-14.595 18.313-26.601 39.546-25.65 0 0-.748 24.046-39.546 25.65z"/><path style="stroke:#fcef3c;stroke-width:3;stroke-linecap:round;stroke-linejoin:round" d="M330.89 347.901c0 4.427 3.209 8.096 7.426 8.831 3.424-.996 6.34-2.22 8.82-3.589a8.927 8.927 0 0 0 1.701-5.242 8.973 8.973 0 0 0-8.974-8.973c-.542 0-1.069.056-1.583.148a36.585 36.585 0 0 0-6.695 5.359 8.943 8.943 0 0 0-.695 3.466z"/><path style="fill:#fcef3c;stroke:#fcef3c;stroke-width:4;stroke-linecap:round;stroke-linejoin:round" d="M281.225 359.246c-6.52-14.595-18.313-26.601-39.546-25.65 0 0 .749 24.046 39.546 25.65z"/><path style="stroke:#fcef3c;stroke-width:3;stroke-linecap:round;stroke-linejoin:round" d="M272.11 347.901c0 4.427-3.208 8.096-7.426 8.831-3.424-.996-6.339-2.22-8.819-3.589a8.92 8.92 0 0 1-1.701-5.242 8.973 8.973 0 0 1 8.973-8.973c.542 0 1.069.056 1.583.148a36.552 36.552 0 0 1 6.695 5.359 8.943 8.943 0 0 1 .695 3.466z"/><ellipse style="fill:#fcef3c" cx="339.863" cy="347.901" rx="1.95" ry="2.861"/><ellipse style="fill:#fcef3c" cx="263.137" cy="347.901" rx="1.951" ry="2.861"/><path d="M357.332 307.674c16.473-14.131 12.571-27.396 37.8-39.534M245.667 307.674c-16.472-14.131-12.571-27.396-37.799-39.534M313.984 407.462s-1.742-26.876 7.79-48.216M289.016 407.462s1.743-26.876-7.791-48.216M284.313 427.136c-2.727 0-3.635-5.288 0-5.288 3.47 0 10.494 13.882 17.187 13.882 6.692 0 13.715-13.882 17.186-13.882 3.636 0 2.728 5.288 0 5.288M301.5 447.082v-11.353M321.635 446.135c-2.96-.78-7.696 1.562-11.547 6.01-3.851 4.448-6.811 4.448-8.588 4.448-1.777 0-4.737 0-8.587-4.448-3.849-4.448-8.587-6.79-11.548-6.01" style="fill:none;stroke:#fcef3c;stroke-width:4;stroke-linecap:round;stroke-linejoin:round"/><path d="M274.046 438.816s-7.138 6.617-7.138 20.403c0 12.917 17.641 13.654 21.24 18.076 3.619 4.443 7.37 7.411 13.352 7.411 5.981 0 9.733-2.968 13.352-7.411 3.601-4.422 21.24-5.159 21.24-18.076 0-13.786-7.139-20.403-7.139-20.403" style="fill:none;stroke:#fcef3c;stroke-width:4;stroke-linecap:round;stroke-linejoin:round"/><path d="M251.617 297.46c4.944 5.376 11.115 7.093 24.221 7.093 19.767 0 25.663-3.988 25.663-3.988s5.896 3.988 25.663 3.988c13.105 0 19.276-1.717 24.221-7.093M219.323 370.089s-9.374 16.999-7.293 37.805M230.248 384.501s-10.242 19.926-7.814 43.854M243.845 396.528s-13.783 26.278-9.622 52.981" style="fill:none;stroke:#fcef3c;stroke-width:3;stroke-linecap:round;stroke-linejoin:round"/><path d="M274.046 410.392s-6.525 17.394-4.513 35.43M328.953 410.392s6.525 17.394 4.512 35.43" style="fill:none;stroke:#fcef3c;stroke-width:4;stroke-linecap:round;stroke-linejoin:round"/><path d="M258.449 405.188s-10.7 12.416-10.7 38.079c0 25.662 19.557 46.935 14.565 71.438-3.815 18.726-1.734 43.694 4.508 54.099M333.898 477.671c-3.139 21.908-13.672 29.84-13.672 56.107 0 38.493 20.114 47.854 9.017 91.204M282.426 491.47c3.815 6.937 8.324 17.34 3.815 37.453-4.508 20.113.694 33.291 15.259 51.324 14.565 18.033 9.711 55.833-2.774 71.438M352.478 484.533s-13.524 22.889-4.161 53.753c9.362 30.864 12.137 65.196-5.202 93.286M382.975 371.261s8.688 14.787 11.117 34.553M374.03 383.112s12.779 23.048 12.779 47.671c0 35.372-24.97 64.501-24.97 90.857M356.135 398.641s15.005 23.343 3.973 58.498M339.301 416.218s14.565 15.605 8.323 45.776" style="fill:none;stroke:#fcef3c;stroke-width:3;stroke-linecap:round;stroke-linejoin:round"/><path style="fill:#e20909;stroke:#000;stroke-width:3;stroke-linecap:round;stroke-linejoin:round" d="m301.5 43.659 20.031 61.654h64.824l-52.439 38.101 20.027 61.653-52.443-38.103-52.445 38.103 20.031-61.653-52.443-38.101h64.826L301.5 43.659z"/></g><g style="display:inline"><path style="fill:url(#b);fill-opacity:1" d="M1.5 1.5v458.868c0 166.31 134.315 301.132 300 301.132s300-134.821 300-301.132V1.5H1.5z"/></g><g style="display:inline"><path style="fill:none;fill-opacity:1;stroke:#000;stroke-width:3;stroke-miterlimit:4;stroke-dasharray:none;stroke-opacity:1" d="M1.5 1.5v458.868c0 166.31 134.315 301.132 300 301.132s300-134.821 300-301.132V1.5H1.5z"/></g></svg>

<?xml version="1.0" encoding="UTF-8" standalone="no"?>
<svg
   xmlns:dc="http://purl.org/dc/elements/1.1/"
   xmlns:cc="http://creativecommons.org/ns#"
   xmlns:rdf="http://www.w3.org/1999/02/22-rdf-syntax-ns#"
   xmlns:svg="http://www.w3.org/2000/svg"
   xmlns="http://www.w3.org/2000/svg"
   xmlns:xlink="http://www.w3.org/1999/xlink"
   xmlns:sodipodi="http://sodipodi.sourceforge.net/DTD/sodipodi-0.dtd"
   xmlns:inkscape="http://www.inkscape.org/namespaces/inkscape"
   height="763"
   width="603"
   version="1.0"
   id="svg20"
   sodipodi:version="0.32"
   inkscape:version="0.46"
   sodipodi:docname="Arogno-coat_of_arms.svg"
   sodipodi:docbase="C:\Documents and Settings\Steve\Bureau\Blason Villages Suisse pour Wikipédia (par Delta-9)"
   inkscape:output_extension="org.inkscape.output.svg.inkscape">
  <metadata
     id="metadata31">
    <rdf:RDF>
      <cc:Work
         rdf:about="">
        <dc:format>image/svg+xml</dc:format>
        <dc:type
           rdf:resource="http://purl.org/dc/dcmitype/StillImage" />
        <dc:date>07-AUG-2006</dc:date>
        <dc:creator>
          <cc:Agent>
            <dc:title>Jérôme BLUM (wagner51)</dc:title>
          </cc:Agent>
        </dc:creator>
        <cc:license
           rdf:resource="http://creativecommons.org/licenses/GPL/2.0/" />
        <dc:coverage />
        <dc:description>Gabarit pour le Projet:Blasons de WIkipédia</dc:description>
        <dc:subject>
          <rdf:Bag>
            <rdf:li>blason suisse modèle gabarit projet blasons</rdf:li>
          </rdf:Bag>
        </dc:subject>
        <dc:language>fr</dc:language>
        <dc:title>Gabrit d'un blason suisse</dc:title>
      </cc:Work>
      <cc:License
         rdf:about="http://creativecommons.org/licenses/GPL/2.0/">
        <cc:permits
           rdf:resource="http://web.resource.org/cc/Reproduction" />
        <cc:permits
           rdf:resource="http://web.resource.org/cc/Distribution" />
        <cc:requires
           rdf:resource="http://web.resource.org/cc/Notice" />
        <cc:permits
           rdf:resource="http://web.resource.org/cc/DerivativeWorks" />
        <cc:requires
           rdf:resource="http://web.resource.org/cc/ShareAlike" />
        <cc:requires
           rdf:resource="http://web.resource.org/cc/SourceCode" />
      </cc:License>
    </rdf:RDF>
  </metadata>
  <defs
     id="defs29"><inkscape:perspective
   sodipodi:type="inkscape:persp3d"
   inkscape:vp_x="0 : 381.5 : 1"
   inkscape:vp_y="0 : 1000 : 0"
   inkscape:vp_z="603 : 381.5 : 1"
   inkscape:persp3d-origin="301.5 : 254.33333 : 1"
   id="perspective28" />
<linearGradient
   id="linearGradient2893">
  <stop
     style="stop-color:#ffffff;stop-opacity:0.3137255;"
     offset="0"
     id="stop2895" />
  <stop
     id="stop2897"
     offset="0.19"
     style="stop-color:#ffffff;stop-opacity:0.25098041;" />
  <stop
     style="stop-color:#6b6b6b;stop-opacity:0.1254902;"
     offset="0.60000002"
     id="stop2901" />
  <stop
     style="stop-color:#000000;stop-opacity:0.1254902;"
     offset="1"
     id="stop2899" />
</linearGradient>
<linearGradient
   id="linearGradient2955">
  <stop
     style="stop-color:white;stop-opacity:0;"
     offset="0"
     id="stop2965" />
  <stop
     style="stop-color:black;stop-opacity:0.64583331;"
     offset="1"
     id="stop2959" />
</linearGradient>
<radialGradient
   inkscape:collect="always"
   xlink:href="#linearGradient2893"
   id="radialGradient3236"
   gradientUnits="userSpaceOnUse"
   gradientTransform="matrix(1.215027,1.531577e-24,1.464684e-23,1.266667,-839.1924,-490.4894)"
   cx="858.04236"
   cy="579.93323"
   fx="858.04236"
   fy="579.93323"
   r="300" />
<inkscape:perspective
   id="perspective2601"
   inkscape:persp3d-origin="306 : 264 : 1"
   inkscape:vp_z="612 : 396 : 1"
   inkscape:vp_y="0 : 1000 : 0"
   inkscape:vp_x="0 : 396 : 1"
   sodipodi:type="inkscape:persp3d" />

	
	
		

	

		
		
		
	
			
			
			
			
			
			
				
			
			
			
			
			
			
			
			
			
			
			
			
			
			
			
			
		
			
			
		
				
				
			
				
				
				
				
			</defs>
  <sodipodi:namedview
     inkscape:window-height="691"
     inkscape:window-width="939"
     inkscape:pageshadow="2"
     inkscape:pageopacity="0.0"
     guidetolerance="10.0"
     gridtolerance="10.0"
     objecttolerance="10.0"
     borderopacity="1.0"
     bordercolor="#666666"
     pagecolor="#ffffff"
     id="base"
     inkscape:zoom="0.37780201"
     inkscape:cx="297.59724"
     inkscape:cy="307.19715"
     inkscape:window-x="92"
     inkscape:window-y="82"
     inkscape:current-layer="layer2"
     showgrid="false"
     showguides="true"
     inkscape:guide-bbox="true">
    <sodipodi:guide
       orientation="horizontal"
       position="761.5"
       id="guide1885" />
    <sodipodi:guide
       orientation="vertical"
       position="1.5"
       id="guide1887" />
    <sodipodi:guide
       orientation="horizontal"
       position="1.5"
       id="guide1889" />
    <sodipodi:guide
       orientation="vertical"
       position="601.5"
       id="guide1891" />
    <sodipodi:guide
       orientation="vertical"
       position="301.50081"
       id="guide1893" />
  </sodipodi:namedview>
  <desc
     id="desc22">Coat of Arms of Canton of Freiburg (Fribourg)</desc>
  <g
     inkscape:groupmode="layer"
     id="layer1"
     inkscape:label="Fond écu"
     style="opacity:1"
     sodipodi:insensitive="true">
    <path
       d="M 1.5,1.5 L 1.5,460.368 C 1.5,626.679 135.814,761.5 301.5,761.5 C 467.186,761.5 601.5,626.679 601.5,460.368 L 601.5,1.5 L 1.5,1.5 z"
       id="path2608"
       style="opacity:1;fill:#fcef3c" />
  </g>
  <g
     inkscape:groupmode="layer"
     id="layer2"
     inkscape:label="Meubles"
     style="opacity:1"
     sodipodi:insensitive="true">
    <path
       style="stroke:#fcef3c;stroke-width:3;stroke-linecap:round;stroke-linejoin:round"
       d="M 215.844,362.466 C 210.296,331.256 221.392,316.69 221.392,316.69 C 190.875,292.762 189.487,256.003 189.487,256.003 C 204.052,258.084 232.836,264.932 244.279,286.173 C 246.907,291.05 249.103,294.728 251.615,297.46 C 241.263,231.969 169.373,250.627 126.718,250.627 C 34.126,250.627 19.561,173.641 19.561,173.641 C 19.561,173.641 62.216,218.896 125.157,218.896 C 168.852,218.896 175.094,205.892 219.83,205.892 C 264.565,205.892 301.498,223.187 301.498,300.564 C 301.498,223.187 338.431,205.892 383.166,205.892 C 427.901,205.892 434.144,218.896 477.838,218.896 C 540.78,218.896 583.435,173.641 583.435,173.641 C 583.435,173.641 568.87,250.627 476.278,250.627 C 433.625,250.627 361.733,231.969 351.382,297.46 C 353.894,294.729 356.09,291.051 358.717,286.173 C 370.161,264.932 398.946,258.083 413.511,256.003 C 413.511,256.003 412.122,292.762 381.606,316.69 C 381.606,316.69 392.703,331.255 387.154,362.466 C 387.154,362.466 405.535,377.031 405.535,420.726 C 405.535,478.987 375.364,499.793 375.364,542.968 C 375.364,571.058 386.808,579.902 381.086,606.949 C 375.364,633.999 346.234,666.77 320.226,677.174 C 320.226,677.174 324.908,670.672 326.468,666.771 C 326.468,666.771 298.031,686.883 265.087,682.376 C 265.087,682.376 281.386,667.292 281.386,653.767 C 281.386,630.532 266.128,616.661 254.337,598.974 C 242.546,581.289 242.893,562.909 242.893,542.102 C 242.893,521.294 248.674,492.545 229.022,467.89 C 209.949,443.96 193.65,396.798 215.844,362.466 z"
       id="path2529" />
    <path
       style="fill:#fcef3c;stroke:#fcef3c;stroke-width:4;stroke-linecap:round;stroke-linejoin:round"
       d="M 321.774,359.246 C 328.294,344.651 340.087,332.645 361.32,333.596 C 361.32,333.596 360.572,357.642 321.774,359.246 z"
       id="path2535" />
    <path
       style="stroke:#fcef3c;stroke-width:3;stroke-linecap:round;stroke-linejoin:round"
       d="M 330.89,347.901 C 330.89,352.328 334.099,355.997 338.316,356.732 C 341.74,355.736 344.656,354.512 347.136,353.143 C 348.201,351.667 348.837,349.86 348.837,347.901 C 348.837,342.945 344.819,338.928 339.863,338.928 C 339.321,338.928 338.794,338.984 338.28,339.076 C 335.81,340.611 333.585,342.415 331.585,344.435 C 331.138,345.501 330.89,346.672 330.89,347.901 z"
       id="path2537" />
    <path
       style="fill:#fcef3c;stroke:#fcef3c;stroke-width:4;stroke-linecap:round;stroke-linejoin:round"
       d="M 281.225,359.246 C 274.705,344.651 262.912,332.645 241.679,333.596 C 241.679,333.596 242.428,357.642 281.225,359.246 z"
       id="path2539" />
    <path
       style="stroke:#fcef3c;stroke-width:3;stroke-linecap:round;stroke-linejoin:round"
       d="M 272.11,347.901 C 272.11,352.328 268.902,355.997 264.684,356.732 C 261.26,355.736 258.345,354.512 255.865,353.143 C 254.799,351.667 254.164,349.86 254.164,347.901 C 254.164,342.945 258.181,338.928 263.137,338.928 C 263.679,338.928 264.206,338.984 264.72,339.076 C 267.19,340.611 269.416,342.415 271.415,344.435 C 271.862,345.501 272.11,346.672 272.11,347.901 z"
       id="path2541" />
    <ellipse
       style="fill:#fcef3c"
       sodipodi:ry="2.8610001"
       sodipodi:rx="1.95"
       sodipodi:cy="347.901"
       sodipodi:cx="339.86301"
       cx="339.86301"
       cy="347.901"
       rx="1.95"
       ry="2.8610001"
       id="ellipse2545" />
    <ellipse
       style="fill:#fcef3c"
       sodipodi:ry="2.8610001"
       sodipodi:rx="1.951"
       sodipodi:cy="347.901"
       sodipodi:cx="263.13699"
       cx="263.13699"
       cy="347.901"
       rx="1.951"
       ry="2.8610001"
       id="ellipse2547" />
    <path
       id="path2551"
       d="M 357.332,307.674 C 373.805,293.543 369.903,280.278 395.132,268.14"
       style="fill:none;stroke:#fcef3c;stroke-width:4;stroke-linecap:round;stroke-linejoin:round" />
    <path
       id="path2553"
       d="M 245.667,307.674 C 229.195,293.543 233.096,280.278 207.868,268.14"
       style="fill:none;stroke:#fcef3c;stroke-width:4;stroke-linecap:round;stroke-linejoin:round" />
    <path
       id="path2555"
       d="M 313.984,407.462 C 313.984,407.462 312.242,380.586 321.774,359.246"
       style="fill:none;stroke:#fcef3c;stroke-width:4;stroke-linecap:round;stroke-linejoin:round" />
    <path
       id="path2557"
       d="M 289.016,407.462 C 289.016,407.462 290.759,380.586 281.225,359.246"
       style="fill:none;stroke:#fcef3c;stroke-width:4;stroke-linecap:round;stroke-linejoin:round" />
    <path
       id="path2559"
       d="M 284.313,427.136 C 281.586,427.136 280.678,421.848 284.313,421.848 C 287.783,421.848 294.807,435.73 301.5,435.73 C 308.192,435.73 315.215,421.848 318.686,421.848 C 322.322,421.848 321.414,427.136 318.686,427.136"
       style="fill:none;stroke:#fcef3c;stroke-width:4;stroke-linecap:round;stroke-linejoin:round" />
    <line
       id="line2561"
       y2="435.729"
       x2="301.5"
       y1="447.082"
       x1="301.5"
       style="fill:none;stroke:#fcef3c;stroke-width:4;stroke-linecap:round;stroke-linejoin:round" />
    <path
       id="path2563"
       d="M 321.635,446.135 C 318.675,445.355 313.939,447.697 310.088,452.145 C 306.237,456.593 303.277,456.593 301.5,456.593 C 299.723,456.593 296.763,456.593 292.913,452.145 C 289.064,447.697 284.326,445.355 281.365,446.135"
       style="fill:none;stroke:#fcef3c;stroke-width:4;stroke-linecap:round;stroke-linejoin:round" />
    <path
       id="path2565"
       d="M 274.046,438.816 C 274.046,438.816 266.908,445.433 266.908,459.219 C 266.908,472.136 284.549,472.873 288.148,477.295 C 291.767,481.738 295.518,484.706 301.5,484.706 C 307.481,484.706 311.233,481.738 314.852,477.295 C 318.453,472.873 336.092,472.136 336.092,459.219 C 336.092,445.433 328.953,438.816 328.953,438.816"
       style="fill:none;stroke:#fcef3c;stroke-width:4;stroke-linecap:round;stroke-linejoin:round" />
    <path
       id="path2567"
       d="M 251.617,297.46 C 256.561,302.836 262.732,304.553 275.838,304.553 C 295.605,304.553 301.501,300.565 301.501,300.565 C 301.501,300.565 307.397,304.553 327.164,304.553 C 340.269,304.553 346.44,302.836 351.385,297.46"
       style="fill:none;stroke:#fcef3c;stroke-width:3;stroke-linecap:round;stroke-linejoin:round" />
    <path
       id="path2569"
       d="M 219.323,370.089 C 219.323,370.089 209.949,387.088 212.03,407.894"
       style="fill:none;stroke:#fcef3c;stroke-width:3;stroke-linecap:round;stroke-linejoin:round" />
    <path
       id="path2571"
       d="M 230.248,384.501 C 230.248,384.501 220.006,404.427 222.434,428.355"
       style="fill:none;stroke:#fcef3c;stroke-width:3;stroke-linecap:round;stroke-linejoin:round" />
    <path
       id="path2573"
       d="M 243.845,396.528 C 243.845,396.528 230.062,422.806 234.223,449.509"
       style="fill:none;stroke:#fcef3c;stroke-width:3;stroke-linecap:round;stroke-linejoin:round" />
    <path
       id="path2575"
       d="M 274.046,410.392 C 274.046,410.392 267.521,427.786 269.533,445.822"
       style="fill:none;stroke:#fcef3c;stroke-width:4;stroke-linecap:round;stroke-linejoin:round" />
    <path
       id="path2577"
       d="M 328.953,410.392 C 328.953,410.392 335.478,427.786 333.465,445.822"
       style="fill:none;stroke:#fcef3c;stroke-width:4;stroke-linecap:round;stroke-linejoin:round" />
    <path
       id="path2579"
       d="M 258.449,405.188 C 258.449,405.188 247.749,417.604 247.749,443.267 C 247.749,468.929 267.306,490.202 262.314,514.705 C 258.499,533.431 260.58,558.399 266.822,568.804"
       style="fill:none;stroke:#fcef3c;stroke-width:3;stroke-linecap:round;stroke-linejoin:round" />
    <path
       id="path2581"
       d="M 333.898,477.671 C 330.759,499.579 320.226,507.511 320.226,533.778 C 320.226,572.271 340.34,581.632 329.243,624.982"
       style="fill:none;stroke:#fcef3c;stroke-width:3;stroke-linecap:round;stroke-linejoin:round" />
    <path
       id="path2583"
       d="M 282.426,491.47 C 286.241,498.407 290.75,508.81 286.241,528.923 C 281.733,549.036 286.935,562.214 301.5,580.247 C 316.065,598.28 311.211,636.08 298.726,651.685"
       style="fill:none;stroke:#fcef3c;stroke-width:3;stroke-linecap:round;stroke-linejoin:round" />
    <path
       id="path2585"
       d="M 352.478,484.533 C 352.478,484.533 338.954,507.422 348.317,538.286 C 357.679,569.15 360.454,603.482 343.115,631.572"
       style="fill:none;stroke:#fcef3c;stroke-width:3;stroke-linecap:round;stroke-linejoin:round" />
    <path
       id="path2587"
       d="M 382.975,371.261 C 382.975,371.261 391.663,386.048 394.092,405.814"
       style="fill:none;stroke:#fcef3c;stroke-width:3;stroke-linecap:round;stroke-linejoin:round" />
    <path
       id="path2589"
       d="M 374.03,383.112 C 374.03,383.112 386.809,406.16 386.809,430.783 C 386.809,466.155 361.839,495.284 361.839,521.64"
       style="fill:none;stroke:#fcef3c;stroke-width:3;stroke-linecap:round;stroke-linejoin:round" />
    <path
       id="path2591"
       d="M 356.135,398.641 C 356.135,398.641 371.14,421.984 360.108,457.139"
       style="fill:none;stroke:#fcef3c;stroke-width:3;stroke-linecap:round;stroke-linejoin:round" />
    <path
       id="path2593"
       d="M 339.301,416.218 C 339.301,416.218 353.866,431.823 347.624,461.994"
       style="fill:none;stroke:#fcef3c;stroke-width:3;stroke-linecap:round;stroke-linejoin:round" />
    <polygon
       points="301.5,43.659 321.531,105.313 386.355,105.313 333.916,143.414 353.943,205.067 301.5,166.964 249.055,205.067 269.086,143.414 216.643,105.313 281.469,105.313 301.5,43.659 "
       id="polygon2492_7_"
       style="fill:#e20909;stroke:#000000;stroke-width:3;stroke-linecap:round;stroke-linejoin:round" />
  </g>
  <g
     inkscape:groupmode="layer"
     id="layer3"
     inkscape:label="Reflet final"
     style="display:inline"
     sodipodi:insensitive="true">
    <path
       style="fill:url(#radialGradient3236);fill-opacity:1"
       d="M 1.5,1.5 L 1.5,460.3679 C 1.5,626.67854 135.81454,761.5 301.49993,761.5 C 467.1854,761.5 601.5,626.67854 601.5,460.3679 L 601.5,1.5 L 1.5,1.5 z "
       id="path2346" />
  </g>
  <g
     inkscape:groupmode="layer"
     id="layer4"
     inkscape:label="Contour final"
     style="display:inline"
     sodipodi:insensitive="true">
    <path
       style="fill:none;fill-opacity:1;stroke:#000000;stroke-width:3;stroke-miterlimit:4;stroke-dasharray:none;stroke-opacity:1"
       d="M 1.5,1.5 L 1.5,460.36794 C 1.5,626.67854 135.81454,761.5 301.49993,761.5 C 467.1854,761.5 601.5,626.67854 601.5,460.36794 L 601.5,1.5 L 1.5,1.5 z "
       id="path3239" />
  </g>
</svg>
